X:1
T:ASOIAF
T:A song of Ice and Fire
%%score { 1 | 2 }
L:1/8
Q:1/4=160
M:3/4
K:C
V:1 treble nm="Piano" snm="Pno."
V:2 bass 
V:1
 G2 C2 ^DF | G2 CC ^DF | G2 C2 ^DF | G2 CC ^DF | G2 C2 EF | G2 C2 EF | G2 C2 EF | G2 C2 EF | G6 | %9
"^00:10" C6 | ^DF G4 | C4 ^DF | D6- | D6- | D6- | D6 | F6 | ^A,6 |"^00:20" ^D=D F4 | ^A,6 | %20
 ^D=D C4 | z6 | z6 | z6 | G6 | C6 | ^DF G4 | C4"^00:30" ^DF | D6- | D6- | D6- | D6 | F6 | ^A,6 | %34
 ^D=D F4 | ^A,6 | ^D=D C4"^00:40" | z6 | z6 | z6 | g6 | c6 | ^df g4 | c4 ^df | d6- | d6- | %46
 d6-"^00:50" |"^00:53" d6 | f6 | ^A6 | d3 ^d3 | d3 ^A3 | c6- | c4 z2 | c6- | c6 |"^1:01" [^Gc]6- | %57
 [Gc]6 | [^D^A]6- | [DA]6 | [^E-^G]6 | [E^G]6 | [C-G]6 | [CG]6 |"^1:10" [^G,-^D]6 | [G,^D]6 | %66
 [^G,^D]6 | [^B,F]4 [B,F]2 | [^D-G]6 | [D-G]6 | [D-G]6 | [DG]6 | [^gc']6 | [^gc']6"^1:20" | %74
 [^d^a]6 | [^d^a]6 | [F^G]6 | [F^G]6 | [cg]6 | [cg]6 | ^G,6- | G,6 | ^D6 |"^1:30" D6 | c'6- | %85
 c'6- | c'6- | c'6 | [c'^d'c'']6- | [c'd'c'']6- | [c'd'c'']6- | [c'd'c'']6 |] %92
V:2
 z6 | z6 | z6 | z6 | C,2- E,2- G,2- | z6 | z6 | C,2 E,2 G,2 | C,2 ^D,2 G,2 | z2 G,2 ^D,2 | %10
 C,4 ^D,G, | z2 G,2 ^D,2 | D,2 G,,2 ^A,,C, | D,2 G,,2 ^A,,C, | D,2 G,,2 ^A,,C, | D,2 G,,2 ^A,,2 | %16
 ^A,,2 D,2 F,2 | z2 F,2 D,2 | ^A,,4 D,F, | z2 ^E,2 D,2 | C,2 F,,2 ^G,,^A,, | C,2 F,,2 ^G,,^A,, | %22
 C,2 F,,2 ^G,,^A,, | C,2 F,,2 ^G,,2 | C,2 ^D,G, CG, | z2 G,^D, G,D, | C,4 G,2 | z2 G,^D, G,2 | %28
 D,2 G,,2 ^A,,C, | D,2 G,,2 ^A,,C, | D,2 G,,2 ^A,,C, | D,2 G,,2 ^A,,2 | ^A,,2 D,2 F,2 | %33
 z2 F,2 D,2 | ^A,,4 z F, | z2 ^E,2 D,2 | C,2 G,,2 ^G,,^A,, | C,2 G,,2 ^G,,^A,, | %38
 C,2 G,,2 ^G,,^A,, | C,2 G,,2 C,2 | G,2 C,C, ^D,^E, | G,2 C,C, ^D,^E, | G,2 C,C, ^D,^E, | %43
 G,2 C,C, ^D,^E, | D2 G,G, ^A,C | D2 G,G, ^A,C | D2 G,G, ^A,C | D2 G,2 D2 | D,2 F,2 ^A,^B, | %49
 D2 F,2 ^A,^B, | D2 F,2 ^A,^B, | D2 F,2 ^A,^B, | C2 G,2 ^G,^A, | C2 G,2 ^G,^A, | C2 G,2 ^G,^A, | %55
 C2 G,2 ^G,^A, | C2 ^D,2 ^G,^A, | C2 ^D,2 ^G,C | ^A,2 ^D,2 G,^G, | ^A,2 ^D,2 G,A, | %60
 ^G,2 C,2 F,=G, | ^G,2 C,2 F,G, | G,2 C,2 ^D,^E, | G,2 C,2 ^D,F, | ^D,2 ^G,,2 C,=D, | %65
 ^D,2 ^G,,2 C,=D, | ^D,^G,, D,D, G,,D, | F,^A,, F,F, A,,F, | G,2 C,2 ^D,F, | G,2 C,2 ^D,^E, | %70
 G,2 C,2 ^D,^E, | G,2 C,2 ^D,^E, | C2 ^D,2 ^G,^A, | C2 ^D,2 ^G,C | ^A,2 ^D,2 G,^G, | %75
 ^A,2 ^D,2 G,A, | ^G,2 C,2 F,=G, | ^G,2 C,2 F,G, | G,2 C,2 ^D,^E, | G,2 C,2 ^D,^E, | %80
 ^D,2 ^G,,2 C,=D, | ^D,2 ^G,,2 C,=D, | ^D,2 ^G,,2 D,2 | D,2 G,,2 D,2 | C2 G,2 ^G,^A, | %85
 C2 G,2 ^G,^A, | C2 G,2 ^G,^A, | C2 G,2 ^G,^A, |[K:treble] c2 G2 ^G^A | c2 G2 ^G^A | c2 G2 ^G^A | %91
 c2 z4 |] %92

